!!!!SEGMENT: Snf0235-O_mundi_Domina--Zwickau_1676_1788.krn
!!!id: Snf0235
!!!AGN: Motet
!!!SCT: Edwards, Gasch, Tröster (2022)
!!!voices: 3
!!!COM: Ludwig Senfl
!!!OTL: O mundi Domina (Zwickau 1676-1788)
**kern	**text	**kern	**text	**kern	**text
*part3	*part3	*part2	*part2	*part1	*part1
*staff3	*staff3	*staff2	*staff2	*staff1	*staff1
*I"Bassus	*	*I"Tenor	*	*I"Superius	*
*I'B	*	*I'T	*	*I'S	*
*clefF4	*	*clefGv2	*	*clefG2	*
*k[b-e-]	*	*k[b-]	*	*k[b-]	*
*B-:	*	*F:	*	*F:	*
*M2/1	*	*M2/1	*	*M2/1	*
*met(C|)	*	*met(C|)	*	*met(C|)	*
!!section: Prima pars: O mundi Domina
!!!OMD: Prima pars: O mundi Domina
=1	=1	=1	=1	=1	=1
!	!	!	!	!LO:TX:a:t=Altus not extant	!
0r	.	0r	.	0g	O
=2	=2	=2	=2	=2	=2
0r	.	0r	.	0b-y	.
=3	=3	=3	=3	=3	=3
1E-y	O	0r	.	0b-y	mun-
4E-y	mun-	.	.	.	.
4F	.	.	.	.	.
4G	.	.	.	.	.
4A	.	.	.	.	.
=4	=4	=4	=4	=4	=4
2B-y	.	0r	.	0g	-di
1c	.	.	.	.	.
4B-y	.	.	.	.	.
4A	.	.	.	.	.
=5	=5	=5	=5	=5	=5
2.G	.	0G	O	0b-y	Do-
4A	.	.	.	.	.
1B-y	.	.	.	.	.
=6	=6	=6	=6	=6	=6
0E-y	-di	0B-y	.	0g	.
=7	=7	=7	=7	=7	=7
0BB-y	Do-	0B-y	mun-	0f	-mi-
=8	=8	=8	=8	=8	=8
1E-y	.	0G	-di	0g	.
1C	.	.	.	.	.
=9	=9	=9	=9	=9	=9
1G	.	0B-y	Do-	0g	-na,
2.GG	-mi-	.	.	.	.
4AA	.	.	.	.	.
=10	=10	=10	=10	=10	=10
2BB-y	.	0G	.	0r	.
1C	.	.	.	.	.
[2BB-y	.	.	.	.	.
=11	=11	=11	=11	=11	=11
2BB-]	.	0F	-mi-	0r	.
2AA	.	.	.	.	.
1D	.	.	.	.	.
=12	=12	=12	=12	=12	=12
[0C	-na,	0G	.	0r	.
=13	=13	=13	=13	=13	=13
1C]	.	0G	-na,	2.g	re-
.	.	.	.	4f	.
1r	.	.	.	4g	.
.	.	.	.	4a	.
.	.	.	.	2b-y	.
=14	=14	=14	=14	=14	=14
0r	.	0r	.	2a	.
.	.	.	.	1g	.
.	.	.	.	2f#i	-gi-
=15	=15	=15	=15	=15	=15
1r	.	0r	.	[0g	-o
2r	.	.	.	.	.
[2C	re-	.	.	.	.
=16	=16	=16	=16	=16	=16
4C]	.	2.G	re-	1g]	.
4BB-y	.	.	.	.	.
4C	.	.	.	.	.
4D	.	4F	.	.	.
2.E-y	.	4G	.	2r	.
.	.	4A	.	.	.
.	.	2B-y	.	2g	ex
4D	.	.	.	.	.
=17	=17	=17	=17	=17	=17
2C	.	2A	.	2a	se-
2BB-y	.	1G	.	2b-y	.
1AA	-gi-	.	.	1cc	.
.	.	2F#i	-gi-	.	.
=18	=18	=18	=18	=18	=18
1GG	-o	1G	-o	1b-y	.
1r	.	1r	.	2a	-mi-
.	.	.	.	2g	-ne
=19	=19	=19	=19	=19	=19
2r	.	0r	.	4b-y	or-
.	.	.	.	4a	.
2G	ex	.	.	4g	.
.	.	.	.	4f	.
2G	se-	.	.	4e	.
.	.	.	.	4d	.
2C	-mi-	.	.	[2g	.
=20	=20	=20	=20	=20	=20
2E-y	-ne	1r	.	2g]	.
2F	.	.	.	1f	.
1G	.	2r	.	.	.
.	.	2G	ex	2e	.
=21	=21	=21	=21	=21	=21
4F	or-	1A	se-	[0f	-ta,
4E-y	.	.	.	.	.
4D	.	.	.	.	.
4C	.	.	.	.	.
2BB-y	.	1B-y	.	.	.
4AA	.	.	.	.	.
4GG	.	.	.	.	.
=22	=22	=22	=22	=22	=22
4FF	.	1c	.	1f]	.
4GG	.	.	.	.	.
4AA	.	.	.	.	.
4BB-y	.	.	.	.	.
2C	.	1c	-mi-	1r	.
2AA	.	.	.	.	.
=23	=23	=23	=23	=23	=23
4BB-y	.	1B-y	.	0r	.
4C	.	.	.	.	.
4D	.	.	.	.	.
4E-y	.	.	.	.	.
4F	.	2A	.	.	.
4D	.	.	.	.	.
4E-y	.	2G	-ne	.	.
4F	.	.	.	.	.
=24	=24	=24	=24	=24	=24
4G	.	4B-y	or-	0r	.
4F	.	4A	.	.	.
4E-y	.	4G	.	.	.
4D	.	4F	.	.	.
1C	.	4E	.	.	.
.	.	4D	.	.	.
.	.	[2G	.	.	.
=25	=25	=25	=25	=25	=25
2BB-y	.	2G]	.	1r	.
2AA	.	1F	.	.	.
1GG	.	.	.	1g	ex
.	.	2E	.	.	.
=26	=26	=26	=26	=26	=26
1D	-ta,	1F	-ta,	1f	tu-
2r	.	2r	.	1g	.
2C	ex	2c	ex	.	.
=27	=27	=27	=27	=27	=27
1G	tu-	1B-y	tu-	[0g	-o
[1C	-o	1c	.	.	.
=28	=28	=28	=28	=28	=28
0C]	.	1c	-o	0g_	.
.	.	1c	iam	.	.
=29	=29	=29	=29	=29	=29
2r	.	0e-X	Chri-	0g]	.
2C	iam	.	.	.	.
2E-y	Chri-	.	.	.	.
2C	.	.	.	.	.
=30	=30	=30	=30	=30	=30
2.F	.	0c	-stus	1r	.
8E-yL	.	.	.	.	.
8DJ	.	.	.	.	.
1C	.	.	.	1g	iam
=31	=31	=31	=31	=31	=31
0BB-y	.	0d	.	0b-y	Chri-
=32	=32	=32	=32	=32	=32
0C	-stus,	1r	.	0g	-stus
.	.	1c	pro-	.	.
=33	=33	=33	=33	=33	=33
1r	.	1e-i	-ces-	1r	.
1c	iam	1c	-sit	1g	pro-
=34	=34	=34	=34	=34	=34
1B-y	Chri-	0r	.	1b-y	-ces-
1c	.	.	.	1g	-sit
=35	=35	=35	=35	=35	=35
0G	.	0B-y	al-	0r	.
=36	=36	=36	=36	=36	=36
1F	-stus	1c	.	0f	al-
1BB-y	pro-	[1d	.	.	.
=37	=37	=37	=37	=37	=37
1B-y	-ces-	1d]	.	1g	.
1A	-sit	1c	.	[1a	.
=38	=38	=38	=38	=38	=38
1D	.	0d	-vo,	1a]	.
1G	al-	.	.	1g	.
=39	=39	=39	=39	=39	=39
0F	-vo,	0f	.	1a	.
.	.	.	.	1cc	.
=40	=40	=40	=40	=40	=40
1r	.	0d	.	1b-y	.
1F	al-	.	.	1a	.
=41	=41	=41	=41	=41	=41
0G	-vo,	1r	.	2a	.
.	.	.	.	4g	.
.	.	.	.	4f	.
.	.	1d	tam-	1g	.
=42	=42	=42	=42	=42	=42
2.D	tam-	1d	-quam	0a	-vo,
4E-y	.	.	.	.	.
1F	.	1c	spon-	.	.
=43	=43	=43	=43	=43	=43
1G	-quam	1B-y	-sus	0r	.
1D	spon-	1A	.	.	.
=44	=44	=44	=44	=44	=44
1E-y	-sus,	1G	de	0r	.
1BB-y	.	1B-y	.	.	.
=45	=45	=45	=45	=45	=45
2r	.	1B-y	tha-	1r	.
2BB-y	tam-	.	.	.	.
2C	.	1G	-la-	2r	.
2GG	.	.	.	[2dd	tam-
=46	=46	=46	=46	=46	=46
1BB-y	.	1F	.	2dd]	.
.	.	.	.	2dd	-quam
2FF	-quam	1F	-mo:	1cc	spon-
2F	spon-	.	.	.	.
=47	=47	=47	=47	=47	=47
2G	.	0r	.	1b-y	-sus
2D	.	.	.	.	.
1F	.	.	.	1a	.
=48	=48	=48	=48	=48	=48
2C	.	0r	.	1g	de
1E-y	.	.	.	.	.
.	.	.	.	1b-y	.
[2BB-y	-sus	.	.	.	.
=49	=49	=49	=49	=49	=49
2BB-]	.	0r	.	2.b-y	tha-
2B-y	de	.	.	.	.
.	.	.	.	4a	.
2c	tha-	.	.	4g	.
.	.	.	.	4f	.
2G	.	.	.	[2g	-la-
=50	=50	=50	=50	=50	=50
2B-y	.	0r	.	2g]	.
2F	.	.	.	1f	.
1G	.	.	.	.	.
.	.	.	.	2e	.
=51	=51	=51	=51	=51	=51
2F	.	2r	.	0f	-mo:
2BB-y	-la-	2B-y	hic	.	.
1BB-y	-mo:	2B-y	ia-	.	.
.	.	2B-y	-cet	.	.
=52	=52	=52	=52	=52	=52
2r	.	1B-y	in	0r	.
2BB-y	hic	.	.	.	.
2C	ia-	2G	prae-	.	.
2GG	.	2B-y	-se-	.	.
=53	=53	=53	=53	=53	=53
2.C	.	2A	.	0r	.
.	.	1G	.	.	.
4BB-y	.	.	.	.	.
1AA	.	.	.	.	.
.	.	2F#i	-pi-	.	.
=54	=54	=54	=54	=54	=54
2GG	-cet,	2G	-o,	1r	.
2BB-y	hic	2d	hic	.	.
2BB-y	ia-	2d	ia-	2r	.
2BB-y	-cet	2d	-cet	2b-y	hic
=55	=55	=55	=55	=55	=55
1.BB-y	in	1d	in	2b-y	ia-
.	.	.	.	2b-y	-cet
.	.	2B-y	prae-	1b-y	in
2BB-y	prae-	2d	-se-	.	.
=56	=56	=56	=56	=56	=56
2C	-se-	2c	.	2g	prae-
2BB-y	.	1F	.	2b-y	-se-
2F	.	.	.	2a	.
2E-y	.	2G	.	[2g	.
=57	=57	=57	=57	=57	=57
1D	-pi-	1A	-pi-	2g]	.
.	.	.	.	2f#i	-pi-
1GG	-o,	1G	-o,	1g	-o,
=58	=58	=58	=58	=58	=58
0FF	qui	1c	qui	1.a	qui
.	.	2c	et	.	.
.	.	[2d	si-	2b-y	et
=59	=59	=59	=59	=59	=59
0GG	et	4d]	.	2cc	si-
.	.	4c	.	.	.
.	.	4B-y	.	1g	-de-
.	.	4A	.	.	.
.	.	1G	-de-	.	.
.	.	.	.	4f	.
.	.	.	.	4e	.
=60	=60	=60	=60	=60	=60
1BB-y	si-	[0F	-ra,	2.d	.
.	.	.	.	4e	.
1BB-y	-de-	.	.	4f	.
.	.	.	.	4d	.
.	.	.	.	[2f	.
=61	=61	=61	=61	=61	=61
0FF	-ra	0F]	.	2f]	.
.	.	.	.	4e	.
.	.	.	.	4d	.
.	.	.	.	2c	-ra
.	.	.	.	[2cc	re-
=62	=62	=62	=62	=62	=62
1AA	re-	0F	qui	4cc]	.
.	.	.	.	4b-y	.
.	.	.	.	4a	.
.	.	.	.	4g	.
1BB-y	.	.	.	1f	-git,
=63	=63	=63	=63	=63	=63
0GG	-git,	0G	et	2r	.
.	.	.	.	1b-y	qui
.	.	.	.	2b-y	et
=64	=64	=64	=64	=64	=64
0r	.	1B-y	si-	1f	si-
.	.	1B-y	-de-	1b-y	.
=65	=65	=65	=65	=65	=65
0r	.	0F	-ra	1.a	-de-
.	.	.	.	4g	-ra
.	.	.	.	4f	.
=66	=66	=66	=66	=66	=66
0D	re-	1A	re-	1.f	re-
.	.	1B-y	.	.	.
.	.	.	.	4g	.
.	.	.	.	4f	.
=67	=67	=67	=67	=67	=67
0E-y	.	[0Gl	-git.	[0gl	-git.
=68	=68	=68	=68	=68	=68
0C	-git,	0G_	.	0g_	.
=69	=69	=69	=69	=69	=69
1r	.	0G_	.	0g_	.
[1C	re-	.	.	.	.
=70	=70	=70	=70	=70	=70
0C]	.	0G_	.	0g_	.
=71	=71	=71	=71	=71	=71
00GGl	-git.	00G]	.	00g]	.
==	==	==	==	==	==
*-	*-	*-	*-	*-	*-
!!!system-decoration: [*]
!!!RDF**kern: i = editorial accidental
!!!RDF**kern: l = terminal long
!!!!PTL: <i> New Senfl Edition: Motets for Four Voices (N-V) </i>
!!!PPR: Hollitzer Verlag
!!!PC#: Denkmäler der Tonkunst in Österreich 163.2
!!!PDT: 2022
!!!PED: Scott Lee Edwards, Stefan Gasch, and Sonja Tröster
!!!YEC: Copyright 2022 Denkmäler der Tonkunst in Österreich
!!!YEM: CC-BY-NC 4.0 (https://creativecommons.org/licenses/by-nc/4.0/legalcode)
!!!EED: Benjamin Ory
!!!EEV: 2024/2/13
!!!verovio: header true
!!!header-left: @{PTL}\n@{PED}, eds.\n@{PC#} (@{PDT})&nbsp;\n
!!!header-right:
!!!header-center:
